archdroid-icon-theme/Archdroid-Grey/apps/scalable/gnome-panel-window-list.svg

<svg fill="#9E9E9E" height="48" viewBox="0 0 48 48" width="48" xmlns="http://www.w3.org/2000/svg"><path d="m11.636719 6c-2.014546 0-3.636719 1.561-3.636719 3.5v21c0 1.939 1.622173 3.5 3.636719 3.5h32.726563c2.014545 0 3.636718-1.561 3.636718-3.5v-21c0-1.939-1.622173-3.5-3.636719-3.5zm.363281 4h32v20h-32zm-12 8v20.5c0 1.939 1.622173 3.5 3.636719 3.5h32.363281v-4h-32v-20z" fill="#9E9E9E"/></svg>

<svg fill="#9E9E9E" height="48" version="1.1" viewBox="0 0 48 48" width="48" xmlns="http://www.w3.org/2000/svg"><path d="M11.636719 6C9.622173 6 8 7.561 8 9.5l0 21c0 1.939 1.622173 3.5 3.636719 3.5l32.726563 0C46.377827 34 48 32.439 48 30.5l0-21C48 7.561 46.377827 6 44.363281 6L11.636719 6ZM12 10L44 10 44 30 12 30 12 10ZM0 18L0 38.5C0 40.439 1.622173 42 3.636719 42L36 42 36 38 4 38 4 18 0 18Z" fill="#9E9E9E"/></svg>
